X: 1026
T: Mardike.
%R: jig
B: Henry Playford "Apollo's Banquet", London 1687 (5th Edition)
F: https://archive.org/details/apollosbanquetco01rugg
Z: 2017 John Chambers <jc:trillian.mit.edu>
N: Bar 3 has 3 beats (9 1/4-notes).
M: 6/4
L: 1/4
K: F
% - - - - - - - - - -
c |\
f2g a>ba | g2f e>dc | f2g a>ba g2f | f3- f2 :: a |\
a>ga d2g | ^f3 g3 | f2e d>ef | e2d ^c2d |
d>ed d>ed | d>ed d>cd/e/ | f3 c3 | B>cB A>BA |\
G>AG F2c | f3 g3 | abc' g2f | f3- f2 |]
% - - - - - - - - - -

%%sep 1 1 500
%%sep 1 1 500

